src/images/swoosh.svg

<svg height="563" viewBox="0 0 1600 563" width="1600" xmlns="http://www.w3.org/2000/svg" xmlns:xlink="http://www.w3.org/1999/xlink"><defs><path id="a" d="m1.000206 517.000293s789.99984-197.999538 1626.999584-144.999777v-370.999884s-760.000172 308.000031-1625.999378 203.000103c2.000412 0-1.000206 312.999558-1.000206 312.999558z"/><filter id="b" height="112.3%" width="103.9%" x="-1.9%" y="-6%"><feOffset dx=".5" dy=".9" in="SourceAlpha" result="shadowOffsetOuter1"/><feGaussianBlur in="shadowOffsetOuter1" result="shadowBlurOuter1" stdDeviation="10.5"/><feColorMatrix in="shadowBlurOuter1" type="matrix" values="0 0 0 0 0   0 0 0 0 0   0 0 0 0 0  0 0 0 0.04 0"/></filter><path id="c" d="m1.000206 527.000139s789.99984-197.999473 1626.999584-144.999848v-361.000106s-760.000172 290.000205-1625.999378 185.000122c2.000412 0-1.000206 320.999832-1.000206 320.999832z"/><filter id="d" height="112.6%" width="103.9%" x="-1.9%" y="-6.1%"><feOffset dx=".5" dy=".9" in="SourceAlpha" result="shadowOffsetOuter1"/><feGaussianBlur in="shadowOffsetOuter1" result="shadowBlurOuter1" stdDeviation="10.5"/><feColorMatrix in="shadowBlurOuter1" type="matrix" values="0 0 0 0 0   0 0 0 0 0   0 0 0 0 0  0 0 0 0.04 0"/></filter></defs><g fill="none" fill-rule="evenodd" transform="translate(-14 16)"><g><use fill="#000" filter="url(#b)" xlink:href="#a"/><use fill="#92a1b4" fill-rule="evenodd" xlink:href="#a"/></g><g><use fill="#000" filter="url(#d)" xlink:href="#c"/><use fill="#7490b1" fill-rule="evenodd" xlink:href="#c"/></g></g></svg>

<?xml version="1.0" encoding="UTF-8"?>
<svg width="1600px" height="563px" viewBox="0 0 1600 563" version="1.1" xmlns="http://www.w3.org/2000/svg" xmlns:xlink="http://www.w3.org/1999/xlink">
    <!-- Generator: Sketch 51.2 (57519) - http://www.bohemiancoding.com/sketch -->
    <title>Blue swoosh</title>
    <desc>Created with Sketch.</desc>
    <defs>
        <path d="M1.000206,517.000293 C1.000206,517.000293 791.000046,319.000755 1627.99979,372.000516 L1627.99979,1.000632 C1627.99979,1.000632 867.999618,309.000663 2.000412,204.000735 C4.000824,204.000735 1.000206,517.000293 1.000206,517.000293 Z" id="path-1"></path>
        <filter x="-1.9%" y="-6.0%" width="103.9%" height="112.3%" filterUnits="objectBoundingBox" id="filter-2">
            <feOffset dx="0.5" dy="0.9" in="SourceAlpha" result="shadowOffsetOuter1"></feOffset>
            <feGaussianBlur stdDeviation="10.5" in="shadowOffsetOuter1" result="shadowBlurOuter1"></feGaussianBlur>
            <feColorMatrix values="0 0 0 0 0   0 0 0 0 0   0 0 0 0 0  0 0 0 0.04 0" type="matrix" in="shadowBlurOuter1"></feColorMatrix>
        </filter>
        <path d="M1.000206,527.000139 C1.000206,527.000139 791.000046,329.000666 1627.99979,382.000291 L1627.99979,21.000185 C1627.99979,21.000185 867.999618,311.00039 2.000412,206.000307 C4.000824,206.000307 1.000206,527.000139 1.000206,527.000139 Z" id="path-3"></path>
        <filter x="-1.9%" y="-6.1%" width="103.9%" height="112.6%" filterUnits="objectBoundingBox" id="filter-4">
            <feOffset dx="0.5" dy="0.9" in="SourceAlpha" result="shadowOffsetOuter1"></feOffset>
            <feGaussianBlur stdDeviation="10.5" in="shadowOffsetOuter1" result="shadowBlurOuter1"></feGaussianBlur>
            <feColorMatrix values="0 0 0 0 0   0 0 0 0 0   0 0 0 0 0  0 0 0 0.04 0" type="matrix" in="shadowBlurOuter1"></feColorMatrix>
        </filter>
    </defs>
    <g id="Page-1" stroke="none" stroke-width="1" fill="none" fill-rule="evenodd">
        <g id="Artboard" transform="translate(0.000000, -674.000000)">
            <g id="Logo-Section" transform="translate(-14.000000, 690.000000)">
                <g id="Blue-swoosh">
                    <g id="Shape-3">
                        <use fill="black" fill-opacity="1" filter="url(#filter-2)" xlink:href="#path-1"></use>
                        <use fill="#92A1B4" fill-rule="evenodd" xlink:href="#path-1"></use>
                    </g>
                    <g id="Shape-3-copy">
                        <use fill="black" fill-opacity="1" filter="url(#filter-4)" xlink:href="#path-3"></use>
                        <use fill="#7490B1" fill-rule="evenodd" xlink:href="#path-3"></use>
                    </g>
                </g>
            </g>
        </g>
    </g>
</svg>
